src/assets/logo/bnotions.svg

<?xml version="1.0" encoding="UTF-8" standalone="no"?><!DOCTYPE svg PUBLIC "-//W3C//DTD SVG 1.1//EN" "http://www.w3.org/Graphics/SVG/1.1/DTD/svg11.dtd"><svg width="100%" height="100%" viewBox="0 0 540 200" version="1.1" xmlns="http://www.w3.org/2000/svg" xmlns:xlink="http://www.w3.org/1999/xlink" xml:space="preserve" xmlns:serif="http://www.serif.com/" style="fill-rule:evenodd;clip-rule:evenodd;stroke-linejoin:round;stroke-miterlimit:1.41421;"><g id="bnotions"><g><path d="M88,86.416c0,-0.309 0,-0.617 0,-0.617c-0.306,-1.235 -0.612,-2.161 -1.531,-3.088l-26.947,-27.167c-0.307,-0.309 -0.613,-0.618 -1.225,-0.927l-0.307,0c-0.612,-0.308 -0.918,-0.308 -1.531,-0.617l-0.306,0l0,10.805l27.56,28.094l2.756,-3.087c0.306,-0.309 0.612,-0.617 0.919,-1.235l0.306,-0.309c0,-0.308 0.306,-0.926 0.306,-1.543l0,-0.309Z" style="fill:#a0a0a0;fill-rule:nonzero;"/><path d="M25.531,89.812l26.947,27.477c0.307,0.308 0.919,0.617 1.225,0.926l0.307,0c0.612,0.308 0.918,0.308 1.531,0.308l1.225,0c0.918,0 1.837,-0.617 2.756,-1.234l2.756,-3.088l-27.56,-27.785l21.435,-21.611l0,-10.805c-0.306,0 -0.612,0 -0.612,0c-0.613,0.309 -0.919,0.309 -1.531,0.617l-0.307,0c-0.306,0.309 -0.918,0.618 -1.225,0.927l-26.947,27.167c-0.919,0.927 -1.225,1.853 -1.531,3.088l0,1.235c0.306,1.234 0.612,2.161 1.531,2.778Z" style="fill:#a0a0a0;fill-rule:nonzero;"/><path d="M88,112.966c-0.306,-1.234 -0.612,-2.161 -1.531,-2.778l-26.947,-27.477c-0.307,-0.308 -0.613,-0.617 -1.225,-0.926l-0.307,0c-0.612,-0.308 -0.918,-0.308 -1.531,-0.308l-0.306,0c-0.306,0 -0.612,0 -0.919,0c-0.918,0 -1.837,0.617 -2.756,1.234l-2.756,3.088l27.56,27.785l-21.129,21.611l0,10.805l0.306,0c0.613,-0.309 0.919,-0.309 1.531,-0.617l0.307,0c0.612,-0.309 0.918,-0.618 1.225,-0.927l26.947,-27.167c0.919,-0.927 1.225,-1.853 1.531,-3.088c0,0 0,-0.308 0,-0.617c0,-0.309 0,-0.309 0,-0.618" style="fill:#a0a0a0;fill-rule:nonzero;"/><path d="M24,113.584c0,0.309 0,0.617 0,0.617c0.306,1.235 0.612,2.161 1.531,3.088l26.947,27.167c0.307,0.309 0.919,0.618 1.225,0.927l0.307,0c0.612,0.308 0.918,0.308 1.531,0.617c0,0 0.306,0 0.612,0l0,-10.805l-27.866,-28.094l-2.756,3.087c-0.306,0.309 -0.612,0.617 -0.919,1.235c0,0 -0.306,0 -0.306,0.309c0,0.308 -0.306,0.926 -0.306,1.543l0,0.309Z" style="fill:#a0a0a0;fill-rule:nonzero;"/></g><g><path d="M148.969,95.162c-6.245,-1.561 -11.865,-3.122 -11.865,-7.804c0,-4.37 4.059,-7.491 9.992,-7.491c5.308,0 9.992,1.873 13.427,5.306c0.312,0.313 0.937,0.313 1.249,0.313c0.625,0 0.937,-0.313 1.249,-0.625l2.498,-2.809c0.625,-0.624 0.312,-1.873 -0.312,-2.497c-4.372,-4.37 -10.305,-6.555 -17.799,-6.555c-10.617,0 -18.111,6.243 -18.111,14.983c0,10.3 9.368,12.797 17.487,14.982c6.869,1.873 12.802,3.434 12.802,9.052c0,1.249 -0.624,8.116 -11.553,8.116c-7.494,0 -12.491,-3.746 -14.676,-6.243c-0.313,-0.312 -0.937,-0.312 -1.249,-0.312c-0.625,0 -0.937,0.312 -1.249,0.624l-2.498,3.122c-0.625,0.624 -0.313,1.56 0,2.185c3.434,3.433 9.68,7.491 19.672,7.491c14.364,0 19.36,-8.116 19.36,-15.607c0,-11.237 -10.305,-14.046 -18.424,-16.231" style="fill:#a0a0a0;fill-rule:nonzero;"/><path d="M216.105,73.936l-4.997,0c-0.312,0 -0.936,0.313 -1.249,0.625l-14.988,22.474l-14.988,-22.474c-0.312,-0.312 -0.937,-0.625 -1.561,-0.625l-4.684,0c-0.625,0 -1.249,0.313 -1.562,0.937c-0.312,0.312 -0.312,1.248 0,1.561l18.736,27.468l0.312,0.312l0,20.289c0,0.936 0.625,1.561 1.561,1.561l4.372,0c0.937,0 1.561,-0.625 1.561,-1.561l0,-20.289l0,-0.312l18.736,-27.468c0.312,-0.313 0.312,-1.249 0.312,-1.561c-0.312,-0.624 -0.937,-0.937 -1.561,-0.937" style="fill:#a0a0a0;fill-rule:nonzero;"/><path d="M275.746,73.936l-7.495,0c-0.624,0 -1.249,0.313 -1.561,0.937l-14.676,35.272c0,0.312 -0.312,0.312 -0.312,0.312c0,0 -0.312,0 -0.312,-0.312l-14.676,-35.272c-0.313,-0.624 -0.937,-0.937 -1.562,-0.937l-7.182,0c-0.936,0 -1.873,0.625 -1.873,1.561l0,49.006c0,0.936 0.937,1.561 1.873,1.561l4.06,0c0.936,0 1.561,-0.625 1.561,-1.561l0,-37.769l15.925,38.393c0.312,0.624 0.937,0.937 1.561,0.937l1.249,0c0.625,0 1.249,-0.313 1.562,-0.937l15.925,-38.393l0,37.769c0,0.936 0.624,1.561 1.561,1.561l4.372,0c0.936,0 1.561,-0.625 1.561,-1.561l0,-49.006c0,-0.936 -0.625,-1.561 -1.561,-1.561" style="fill:#a0a0a0;fill-rule:nonzero;"/><path d="M323.833,111.081c0,4.994 -3.435,8.116 -8.743,8.116l-14.988,0l0,-16.232l14.988,0c5.933,0 8.743,4.058 8.743,8.116Zm-23.731,-14.983l0,-15.295l14.676,0c4.996,0 8.118,2.81 8.118,7.492c0,4.682 -3.122,7.803 -8.118,7.803l-14.676,0Zm24.043,3.434c-0.312,0 -0.312,-0.312 -0.312,-0.312c0,-0.312 0,-0.312 0.312,-0.625c4.06,-1.872 6.558,-6.242 6.558,-11.237c0,-8.115 -5.933,-13.422 -14.989,-13.422l-21.545,0c-0.937,0 -1.874,0.625 -1.874,1.561l0,49.006c0,0.936 0.937,1.561 1.874,1.561l22.17,0c9.368,0 15.3,-5.619 15.3,-14.359c0,-4.994 -3.122,-9.988 -7.494,-12.173Z" style="fill:#a0a0a0;fill-rule:nonzero;"/><path d="M351.312,73.936l-4.372,0c-0.937,0 -1.561,0.625 -1.561,1.561l0,49.006c0,0.936 0.624,1.561 1.561,1.561l4.372,0c0.936,0 1.561,-0.625 1.561,-1.561l0,-49.006c0,-0.936 -0.625,-1.561 -1.561,-1.561" style="fill:#a0a0a0;fill-rule:nonzero;"/><path d="M397.838,119.197l-22.17,0l0,-43.7c0,-0.936 -0.625,-1.561 -1.562,-1.561l-4.059,0c-0.937,0 -1.874,0.625 -1.874,1.561l0,49.006c0,0.936 0.937,1.561 1.874,1.561l27.791,0c0.937,0 1.561,-0.625 1.561,-1.561l0,-3.434c0,-0.936 -0.624,-1.872 -1.561,-1.872" style="fill:#a0a0a0;fill-rule:nonzero;"/><path d="M415.636,73.936l-4.371,0c-0.937,0 -1.561,0.625 -1.561,1.561l0,49.006c0,0.936 0.624,1.561 1.561,1.561l4.371,0c0.937,0 1.562,-0.625 1.562,-1.561l0,-49.006c0,-0.936 -0.625,-1.561 -1.562,-1.561" style="fill:#a0a0a0;fill-rule:nonzero;"/><path d="M464.348,73.936l-36.534,0c-0.936,0 -1.873,0.625 -1.873,1.561l0,3.434c0,0.936 0.937,1.872 1.873,1.872l14.364,0l0,43.7c0,0.936 0.625,1.561 1.561,1.561l4.372,0c0.937,0 1.561,-0.625 1.561,-1.561l0,-43.7l14.676,0c0.937,0 1.562,-0.936 1.562,-1.872l0,-3.434c0,-0.936 -0.625,-1.561 -1.562,-1.561" style="fill:#a0a0a0;fill-rule:nonzero;"/><path d="M515.871,74.873c-0.313,-0.624 -0.937,-0.937 -1.562,-0.937l-4.996,0c-0.312,0 -0.936,0.313 -1.249,0.625l-14.988,22.474l-14.988,-22.474c-0.313,-0.312 -0.937,-0.625 -1.562,-0.625l-4.683,0c-0.625,0 -1.25,0.313 -1.562,0.937c-0.312,0.312 -0.312,1.248 0,1.561l19.048,27.468l0,20.601c0,0.936 0.624,1.561 1.561,1.561l4.372,0c0.937,0 1.561,-0.625 1.561,-1.561l0,-20.289l0,-0.312l18.735,-27.468c0.313,-0.313 0.625,-1.249 0.313,-1.561" style="fill:#a0a0a0;fill-rule:nonzero;"/></g></g></svg>

<?xml version="1.0" encoding="UTF-8" standalone="no"?>
<!DOCTYPE svg PUBLIC "-//W3C//DTD SVG 1.1//EN" "http://www.w3.org/Graphics/SVG/1.1/DTD/svg11.dtd">
<svg width="100%" height="100%" viewBox="0 0 540 200" version="1.1" xmlns="http://www.w3.org/2000/svg" xmlns:xlink="http://www.w3.org/1999/xlink" xml:space="preserve" xmlns:serif="http://www.serif.com/" style="fill-rule:evenodd;clip-rule:evenodd;stroke-linejoin:round;stroke-miterlimit:2;">
    <g id="bnotions">
        <g>
            <path d="M88,86.725L88,85.799C87.694,84.564 87.388,83.638 86.469,82.711L59.522,55.544C59.215,55.235 58.909,54.926 58.297,54.617L57.99,54.617C57.378,54.309 57.072,54.309 56.459,54L56.153,54L56.153,64.805L83.713,92.899L86.469,89.812C86.775,89.503 87.081,89.195 87.388,88.577L87.694,88.268C87.694,87.96 88,87.342 88,86.725Z" style="fill:rgb(208,208,208);fill-rule:nonzero;"/>
            <path d="M25.531,89.812L52.478,117.289C52.785,117.597 53.397,117.906 53.703,118.215L54.01,118.215C54.622,118.523 54.928,118.523 55.541,118.523L56.766,118.523C57.684,118.523 58.603,117.906 59.522,117.289L62.278,114.201L34.718,86.416L56.153,64.805L56.153,54L55.541,54C54.928,54.309 54.622,54.309 54.01,54.617L53.703,54.617C53.397,54.926 52.785,55.235 52.478,55.544L25.531,82.711C24.612,83.638 24.306,84.564 24,85.799L24,87.034C24.306,88.268 24.612,89.195 25.531,89.812Z" style="fill:rgb(208,208,208);fill-rule:nonzero;"/>
            <path d="M88,112.966C87.694,111.732 87.388,110.805 86.469,110.188L59.522,82.711C59.215,82.403 58.909,82.094 58.297,81.785L57.99,81.785C57.378,81.477 57.072,81.477 56.459,81.477L55.234,81.477C54.316,81.477 53.397,82.094 52.478,82.711L49.722,85.799L77.282,113.584L56.153,135.195L56.153,146L56.459,146C57.072,145.691 57.378,145.691 57.99,145.383L58.297,145.383C58.909,145.074 59.215,144.765 59.522,144.456L86.469,117.289C87.388,116.362 87.694,115.436 88,114.201L88,112.966" style="fill:rgb(208,208,208);fill-rule:nonzero;"/>
            <path d="M24,113.275L24,114.201C24.306,115.436 24.612,116.362 25.531,117.289L52.478,144.456C52.785,144.765 53.397,145.074 53.703,145.383L54.01,145.383C54.622,145.691 54.928,145.691 55.541,146L56.153,146L56.153,135.195L28.287,107.101L25.531,110.188C25.225,110.497 24.919,110.805 24.612,111.423C24.612,111.423 24.306,111.423 24.306,111.732C24.306,112.04 24,112.658 24,113.275Z" style="fill:rgb(208,208,208);fill-rule:nonzero;"/>
        </g>
        <g>
            <path d="M148.969,95.162C142.724,93.601 137.104,92.04 137.104,87.358C137.104,82.988 141.163,79.867 147.096,79.867C152.404,79.867 157.088,81.74 160.523,85.173C160.835,85.486 161.46,85.486 161.772,85.486C162.397,85.486 162.709,85.173 163.021,84.861L165.519,82.052C166.144,81.428 165.831,80.179 165.207,79.555C160.835,75.185 154.902,73 147.408,73C136.791,73 129.297,79.243 129.297,87.983C129.297,98.283 138.665,100.78 146.784,102.965C153.653,104.838 159.586,106.399 159.586,112.017C159.586,113.266 158.962,120.133 148.033,120.133C140.539,120.133 135.542,116.387 133.357,113.89C133.044,113.578 132.42,113.578 132.108,113.578C131.483,113.578 131.171,113.89 130.859,114.202L128.361,117.324C127.736,117.948 128.048,118.884 128.361,119.509C131.795,122.942 138.041,127 148.033,127C162.397,127 167.393,118.884 167.393,111.393C167.393,100.156 157.088,97.347 148.969,95.162" style="fill:rgb(208,208,208);fill-rule:nonzero;"/>
            <path d="M216.105,73.936L211.108,73.936C210.796,73.936 210.172,74.249 209.859,74.561L194.871,97.035L179.883,74.561C179.571,74.249 178.946,73.936 178.322,73.936L173.638,73.936C173.013,73.936 172.389,74.249 172.076,74.873C171.764,75.185 171.764,76.121 172.076,76.434L190.812,103.902L191.124,104.214L191.124,124.503C191.124,125.439 191.749,126.064 192.685,126.064L197.057,126.064C197.994,126.064 198.618,125.439 198.618,124.503L198.618,103.902L217.354,76.434C217.666,76.121 217.666,75.185 217.666,74.873C217.354,74.249 216.729,73.936 216.105,73.936" style="fill:rgb(208,208,208);fill-rule:nonzero;"/>
            <path d="M275.746,73.936L268.251,73.936C267.627,73.936 267.002,74.249 266.69,74.873L252.014,110.145C252.014,110.457 251.702,110.457 251.702,110.457C251.702,110.457 251.39,110.457 251.39,110.145L236.714,74.873C236.401,74.249 235.777,73.936 235.152,73.936L227.97,73.936C227.034,73.936 226.097,74.561 226.097,75.497L226.097,124.503C226.097,125.439 227.034,126.064 227.97,126.064L232.03,126.064C232.966,126.064 233.591,125.439 233.591,124.503L233.591,86.734L249.516,125.127C249.828,125.751 250.453,126.064 251.077,126.064L252.326,126.064C252.951,126.064 253.575,125.751 253.888,125.127L269.813,86.734L269.813,124.503C269.813,125.439 270.437,126.064 271.374,126.064L275.746,126.064C276.682,126.064 277.307,125.439 277.307,124.503L277.307,75.497C277.307,74.561 276.682,73.936 275.746,73.936" style="fill:rgb(208,208,208);fill-rule:nonzero;"/>
            <path d="M323.833,111.081C323.833,116.075 320.398,119.197 315.09,119.197L300.102,119.197L300.102,102.965L315.09,102.965C321.023,102.965 323.833,107.023 323.833,111.081ZM300.102,96.098L300.102,80.803L314.778,80.803C319.774,80.803 322.896,83.613 322.896,88.295C322.896,92.977 319.774,96.098 314.778,96.098L300.102,96.098ZM324.145,99.532C323.833,99.532 323.833,99.22 323.833,99.22C323.833,98.908 323.833,98.908 324.145,98.595C328.205,96.723 330.703,92.353 330.703,87.358C330.703,79.243 324.77,73.936 315.714,73.936L294.169,73.936C293.232,73.936 292.295,74.561 292.295,75.497L292.295,124.503C292.295,125.439 293.232,126.064 294.169,126.064L316.339,126.064C325.707,126.064 331.639,120.445 331.639,111.705C331.639,106.711 328.517,101.717 324.145,99.532Z" style="fill:rgb(208,208,208);fill-rule:nonzero;"/>
            <path d="M351.312,73.936L346.94,73.936C346.003,73.936 345.379,74.561 345.379,75.497L345.379,124.503C345.379,125.439 346.003,126.064 346.94,126.064L351.312,126.064C352.248,126.064 352.873,125.439 352.873,124.503L352.873,75.497C352.873,74.561 352.248,73.936 351.312,73.936" style="fill:rgb(208,208,208);fill-rule:nonzero;"/>
            <path d="M397.838,119.197L375.668,119.197L375.668,75.497C375.668,74.561 375.043,73.936 374.106,73.936L370.047,73.936C369.11,73.936 368.173,74.561 368.173,75.497L368.173,124.503C368.173,125.439 369.11,126.064 370.047,126.064L397.838,126.064C398.775,126.064 399.399,125.439 399.399,124.503L399.399,121.069C399.399,120.133 398.775,119.197 397.838,119.197" style="fill:rgb(208,208,208);fill-rule:nonzero;"/>
            <path d="M415.636,73.936L411.265,73.936C410.328,73.936 409.704,74.561 409.704,75.497L409.704,124.503C409.704,125.439 410.328,126.064 411.265,126.064L415.636,126.064C416.573,126.064 417.198,125.439 417.198,124.503L417.198,75.497C417.198,74.561 416.573,73.936 415.636,73.936" style="fill:rgb(208,208,208);fill-rule:nonzero;"/>
            <path d="M464.348,73.936L427.814,73.936C426.878,73.936 425.941,74.561 425.941,75.497L425.941,78.931C425.941,79.867 426.878,80.803 427.814,80.803L442.178,80.803L442.178,124.503C442.178,125.439 442.803,126.064 443.739,126.064L448.111,126.064C449.048,126.064 449.672,125.439 449.672,124.503L449.672,80.803L464.348,80.803C465.285,80.803 465.91,79.867 465.91,78.931L465.91,75.497C465.91,74.561 465.285,73.936 464.348,73.936" style="fill:rgb(208,208,208);fill-rule:nonzero;"/>
            <path d="M515.871,74.873C515.558,74.249 514.934,73.936 514.309,73.936L509.313,73.936C509.001,73.936 508.377,74.249 508.064,74.561L493.076,97.035L478.088,74.561C477.775,74.249 477.151,73.936 476.526,73.936L471.843,73.936C471.218,73.936 470.593,74.249 470.281,74.873C469.969,75.185 469.969,76.121 470.281,76.434L489.329,103.902L489.329,124.503C489.329,125.439 489.953,126.064 490.89,126.064L495.262,126.064C496.199,126.064 496.823,125.439 496.823,124.503L496.823,103.902L515.558,76.434C515.871,76.121 516.183,75.185 515.871,74.873" style="fill:rgb(208,208,208);fill-rule:nonzero;"/>
        </g>
    </g>
</svg>
